Sweet-Rainbow/icons/wps-office-pdf.svg

<?xml version="1.0" encoding="UTF-8" standalone="no"?>
<!-- Generator: Gravit.io -->

<svg
   xmlns:dc="http://purl.org/dc/elements/1.1/"
   xmlns:cc="http://creativecommons.org/ns#"
   xmlns:rdf="http://www.w3.org/1999/02/22-rdf-syntax-ns#"
   xmlns:svg="http://www.w3.org/2000/svg"
   xmlns="http://www.w3.org/2000/svg"
   xmlns:sodipodi="http://sodipodi.sourceforge.net/DTD/sodipodi-0.dtd"
   xmlns:inkscape="http://www.inkscape.org/namespaces/inkscape"
   style="isolation:isolate"
   viewBox="0 0 36 36"
   width="48"
   height="48"
   version="1.1"
   id="svg9"
   sodipodi:docname="wps-office-pdf.svg"
   inkscape:version="0.92.4 (5da689c313, 2019-01-14)">
  <metadata
     id="metadata15">
    <rdf:RDF>
      <cc:Work
         rdf:about="">
        <dc:format>image/svg+xml</dc:format>
        <dc:type
           rdf:resource="http://purl.org/dc/dcmitype/StillImage" />
        <dc:title></dc:title>
      </cc:Work>
    </rdf:RDF>
  </metadata>
  <defs
     id="defs13" />
  <sodipodi:namedview
     pagecolor="#ffffff"
     bordercolor="#666666"
     borderopacity="1"
     objecttolerance="10"
     gridtolerance="10"
     guidetolerance="10"
     inkscape:pageopacity="0"
     inkscape:pageshadow="2"
     inkscape:window-width="640"
     inkscape:window-height="480"
     id="namedview11"
     showgrid="false"
     inkscape:zoom="29.365243"
     inkscape:cx="25.325443"
     inkscape:cy="32"
     inkscape:current-layer="svg9"
     units="px" />
  <linearGradient
     id="_lgradient_91"
     x1="0"
     y1="0.5"
     x2="1"
     y2="0.5"
     gradientTransform="matrix(42,0,0,42,3,3)"
     gradientUnits="userSpaceOnUse">
    <stop
       offset="0%"
       stop-opacity="1"
       style="stop-color:rgb(238,205,163)"
       id="stop2" />
    <stop
       offset="98.26086956521739%"
       stop-opacity="1"
       style="stop-color:rgb(239,98,159)"
       id="stop4" />
  </linearGradient>
  <g
     id="g826"
     transform="matrix(0.85714286,0,0,0.85714286,-2.5714286,-2.5714286)">
    <path
       id="path7"
       d="M 34.5,3.067 C 34.342,3.022 34.174,3 34,3 V 3 H 8 C 5.24,3 3,5.24 3,8 v 19 0 c 0,1.104 0.896,2 2,2 v 0 c 1.104,0 2,-0.896 2,-2 v 0 0 0 -17 C 7,8.344 8.344,7 10,7 H 34 V 7 C 34.174,7 34.342,6.978 34.5,6.933 34.658,6.978 34.826,7 35,7 v 0 h 3 c 1.656,0 3,1.344 3,3 v 3 0 c 0,1.104 0.896,2 2,2 v 0 c 1.104,0 2,-0.896 2,-2 V 13 8 C 45,5.24 42.76,3 40,3 H 35 V 3 C 34.826,3 34.658,3.022 34.5,3.067 Z M 13,41 v 0 c 1.104,0 2,0.896 2,2 v 0 c 0,1.104 -0.896,2 -2,2 v 0 H 8 C 5.24,45 3,42.76 3,40 v -5 0 c 0,-1.104 0.896,-2 2,-2 v 0 c 1.104,0 2,0.896 2,2 v 0 3 c 0,1.656 1.344,3 3,3 z M 41,22 v 0 c 0,-1.104 0.896,-2 2,-2 v 0 c 1.104,0 2,0.896 2,2 v 0 18 c 0,2.76 -2.24,5 -5,5 H 22 v 0 c -1.104,0 -2,-0.896 -2,-2 v 0 c 0,-1.104 0.896,-2 2,-2 v 0 h 16 c 1.656,0 3,-1.344 3,-3 z m -20.445,8.004 v 0 c 0,-0.95 0.772,-1.722 1.723,-1.722 v 0 c 0.95,0 1.722,0.772 1.722,1.722 v 0 6.028 c 0,0.439 -0.164,0.852 -0.465,1.171 -0.293,0.318 -0.706,0.517 -1.137,0.551 -0.62,0.043 -1.248,0.052 -1.868,0.043 C 20.013,37.78 19.505,37.745 18.988,37.668 18.411,37.59 17.843,37.461 17.283,37.28 16.801,37.134 16.336,36.927 15.897,36.678 15.415,36.402 14.976,36.066 14.588,35.679 14.201,35.3 13.882,34.861 13.624,34.387 c -0.276,-0.499 -0.482,-1.042 -0.603,-1.593 -0.146,-0.637 -0.215,-1.283 -0.215,-1.929 0,-0.645 0.069,-1.3 0.215,-1.928 0.129,-0.56 0.327,-1.102 0.603,-1.611 0.267,-0.473 0.594,-0.904 0.973,-1.291 0.396,-0.388 0.835,-0.723 1.326,-0.999 0.422,-0.241 0.87,-0.439 1.335,-0.585 0.542,-0.173 1.093,-0.293 1.644,-0.379 0.525,-0.078 1.051,-0.121 1.576,-0.129 0.62,-0.018 1.24,-0.009 1.86,0.034 h 5.95 c 0.181,0 0.353,-0.026 0.525,-0.06 0.172,-0.035 0.344,-0.078 0.508,-0.147 0.207,-0.077 0.405,-0.181 0.594,-0.301 0.164,-0.103 0.319,-0.215 0.465,-0.344 0.147,-0.13 0.276,-0.267 0.388,-0.422 0.129,-0.164 0.241,-0.336 0.335,-0.517 0.207,-0.388 0.362,-0.801 0.448,-1.231 0.138,-0.698 0.207,-1.412 0.198,-2.127 C 31.741,18.148 31.655,17.467 31.5,16.813 31.388,16.357 31.215,15.935 30.983,15.53 30.785,15.186 30.535,14.876 30.242,14.609 29.924,14.307 29.562,14.058 29.175,13.86 29.037,13.791 28.891,13.739 28.736,13.713 28.589,13.67 28.443,13.644 28.288,13.644 H 24 v 6.889 0 c 0,0.95 -0.772,1.722 -1.722,1.722 v 0 c -0.951,0 -1.723,-0.772 -1.723,-1.722 v 0 -8.611 c 0,-0.95 0.772,-1.722 1.723,-1.722 h 6.027 c 0.009,0 0.017,0 0.034,0 0.405,0.009 0.81,0.06 1.197,0.164 0.405,0.086 0.793,0.223 1.163,0.404 0.689,0.345 1.326,0.784 1.885,1.309 0.543,0.508 1.008,1.085 1.378,1.722 0.405,0.689 0.698,1.43 0.887,2.205 0.215,0.912 0.336,1.851 0.344,2.789 0.009,0.956 -0.077,1.903 -0.266,2.842 -0.155,0.758 -0.414,1.49 -0.784,2.17 -0.189,0.353 -0.405,0.697 -0.654,1.016 -0.241,0.31 -0.508,0.594 -0.801,0.861 -0.302,0.267 -0.62,0.508 -0.965,0.715 -0.353,0.223 -0.731,0.413 -1.119,0.576 -0.362,0.138 -0.74,0.25 -1.128,0.319 -0.37,0.078 -0.758,0.121 -1.145,0.129 -0.009,0 -0.017,0 -0.026,0 h -6.027 c -0.043,0 -0.078,0 -0.121,0 -0.534,-0.043 -1.059,-0.051 -1.593,-0.043 -0.387,0.017 -0.775,0.043 -1.154,0.103 -0.379,0.052 -0.749,0.138 -1.102,0.25 -0.241,0.078 -0.473,0.181 -0.697,0.31 -0.216,0.121 -0.405,0.267 -0.586,0.439 -0.146,0.147 -0.275,0.319 -0.379,0.508 -0.12,0.216 -0.206,0.457 -0.267,0.698 -0.086,0.387 -0.129,0.783 -0.129,1.179 0,0.397 0.043,0.784 0.129,1.172 0.052,0.249 0.147,0.482 0.267,0.706 0.095,0.18 0.224,0.353 0.379,0.499 0.172,0.172 0.362,0.327 0.577,0.448 0.224,0.129 0.465,0.232 0.715,0.31 0.379,0.12 0.757,0.206 1.154,0.258 0.361,0.052 0.723,0.078 1.084,0.095 z"
       inkscape:connector-curvature="0"
       style="fill:url(#_lgradient_91);fill-rule:evenodd" />
  </g>
</svg>

<?xml version="1.0" encoding="UTF-8" standalone="no"?><!-- Generator: Gravit.io --><svg xmlns="http://www.w3.org/2000/svg" xmlns:xlink="http://www.w3.org/1999/xlink" style="isolation:isolate" viewBox="0 0 48 48" width="48pt" height="48pt"><linearGradient id="_lgradient_91" x1="0" y1="0.5" x2="1" y2="0.5" gradientTransform="matrix(42,0,0,42,3,3)" gradientUnits="userSpaceOnUse"><stop offset="0%" stop-opacity="1" style="stop-color:rgb(238,205,163)"/><stop offset="98.26086956521739%" stop-opacity="1" style="stop-color:rgb(239,98,159)"/></linearGradient><path d=" M 34.5 3.067 C 34.342 3.022 34.174 3 34 3 L 34 3 L 8 3 C 5.24 3 3 5.24 3 8 L 3 27 L 3 27 C 3 28.104 3.896 29 5 29 L 5 29 C 6.104 29 7 28.104 7 27 L 7 27 L 7 27 L 7 27 L 7 10 C 7 8.344 8.344 7 10 7 L 34 7 L 34 7 C 34.174 7 34.342 6.978 34.5 6.933 C 34.658 6.978 34.826 7 35 7 L 35 7 L 38 7 C 39.656 7 41 8.344 41 10 L 41 13 L 41 13 C 41 14.104 41.896 15 43 15 L 43 15 C 44.104 15 45 14.104 45 13 L 45 13 L 45 8 C 45 5.24 42.76 3 40 3 L 35 3 L 35 3 C 34.826 3 34.658 3.022 34.5 3.067 L 34.5 3.067 Z  M 13 41 L 13 41 C 14.104 41 15 41.896 15 43 L 15 43 C 15 44.104 14.104 45 13 45 L 13 45 L 8 45 C 5.24 45 3 42.76 3 40 L 3 35 L 3 35 C 3 33.896 3.896 33 5 33 L 5 33 C 6.104 33 7 33.896 7 35 L 7 35 L 7 38 C 7 39.656 8.344 41 10 41 L 13 41 L 13 41 L 13 41 L 13 41 Z  M 41 22 L 41 22 C 41 20.896 41.896 20 43 20 L 43 20 C 44.104 20 45 20.896 45 22 L 45 22 L 45 40 C 45 42.76 42.76 45 40 45 L 22 45 L 22 45 C 20.896 45 20 44.104 20 43 L 20 43 C 20 41.896 20.896 41 22 41 L 22 41 L 38 41 C 39.656 41 41 39.656 41 38 L 41 22 L 41 22 L 41 22 Z  M 20.555 30.004 L 20.555 30.004 C 20.555 29.054 21.327 28.282 22.278 28.282 L 22.278 28.282 C 23.228 28.282 24 29.054 24 30.004 L 24 30.004 L 24 36.032 C 24 36.471 23.836 36.884 23.535 37.203 C 23.242 37.521 22.829 37.72 22.398 37.754 C 21.778 37.797 21.15 37.806 20.53 37.797 C 20.013 37.78 19.505 37.745 18.988 37.668 C 18.411 37.59 17.843 37.461 17.283 37.28 C 16.801 37.134 16.336 36.927 15.897 36.678 C 15.415 36.402 14.976 36.066 14.588 35.679 C 14.201 35.3 13.882 34.861 13.624 34.387 C 13.348 33.888 13.142 33.345 13.021 32.794 C 12.875 32.157 12.806 31.511 12.806 30.865 C 12.806 30.22 12.875 29.565 13.021 28.937 C 13.15 28.377 13.348 27.835 13.624 27.326 C 13.891 26.853 14.218 26.422 14.597 26.035 C 14.993 25.647 15.432 25.312 15.923 25.036 C 16.345 24.795 16.793 24.597 17.258 24.451 C 17.8 24.278 18.351 24.158 18.902 24.072 C 19.427 23.994 19.953 23.951 20.478 23.943 C 21.098 23.925 21.718 23.934 22.338 23.977 L 28.288 23.977 C 28.469 23.977 28.641 23.951 28.813 23.917 C 28.985 23.882 29.157 23.839 29.321 23.77 C 29.528 23.693 29.726 23.589 29.915 23.469 C 30.079 23.366 30.234 23.254 30.38 23.125 C 30.527 22.995 30.656 22.858 30.768 22.703 C 30.897 22.539 31.009 22.367 31.103 22.186 C 31.31 21.798 31.465 21.385 31.551 20.955 C 31.689 20.257 31.758 19.543 31.749 18.828 C 31.741 18.148 31.655 17.467 31.5 16.813 C 31.388 16.357 31.215 15.935 30.983 15.53 C 30.785 15.186 30.535 14.876 30.242 14.609 C 29.924 14.307 29.562 14.058 29.175 13.86 C 29.037 13.791 28.891 13.739 28.736 13.713 C 28.589 13.67 28.443 13.644 28.288 13.644 L 24 13.644 L 24 20.533 L 24 20.533 C 24 21.483 23.228 22.255 22.278 22.255 L 22.278 22.255 C 21.327 22.255 20.555 21.483 20.555 20.533 L 20.555 20.533 L 20.555 11.922 C 20.555 10.972 21.327 10.2 22.278 10.2 L 28.305 10.2 C 28.314 10.2 28.322 10.2 28.339 10.2 C 28.744 10.209 29.149 10.26 29.536 10.364 C 29.941 10.45 30.329 10.587 30.699 10.768 C 31.388 11.113 32.025 11.552 32.584 12.077 C 33.127 12.585 33.592 13.162 33.962 13.799 C 34.367 14.488 34.66 15.229 34.849 16.004 C 35.064 16.916 35.185 17.855 35.193 18.793 C 35.202 19.749 35.116 20.696 34.927 21.635 C 34.772 22.393 34.513 23.125 34.143 23.805 C 33.954 24.158 33.738 24.502 33.489 24.821 C 33.248 25.131 32.981 25.415 32.688 25.682 C 32.386 25.949 32.068 26.19 31.723 26.397 C 31.37 26.62 30.992 26.81 30.604 26.973 C 30.242 27.111 29.864 27.223 29.476 27.292 C 29.106 27.37 28.718 27.413 28.331 27.421 C 28.322 27.421 28.314 27.421 28.305 27.421 L 22.278 27.421 C 22.235 27.421 22.2 27.421 22.157 27.421 C 21.623 27.378 21.098 27.37 20.564 27.378 C 20.177 27.395 19.789 27.421 19.41 27.481 C 19.031 27.533 18.661 27.619 18.308 27.731 C 18.067 27.809 17.835 27.912 17.611 28.041 C 17.395 28.162 17.206 28.308 17.025 28.48 C 16.879 28.627 16.75 28.799 16.646 28.988 C 16.526 29.204 16.44 29.445 16.379 29.686 C 16.293 30.073 16.25 30.469 16.25 30.865 C 16.25 31.262 16.293 31.649 16.379 32.037 C 16.431 32.286 16.526 32.519 16.646 32.743 C 16.741 32.923 16.87 33.096 17.025 33.242 C 17.197 33.414 17.387 33.569 17.602 33.69 C 17.826 33.819 18.067 33.922 18.317 34 C 18.696 34.12 19.074 34.206 19.471 34.258 C 19.832 34.31 20.194 34.336 20.555 34.353 L 20.555 30.004 Z " fill-rule="evenodd" fill="url(#_lgradient_91)"/></svg>
